configs/network-logos/arbitrum-sepolia.svg

<svg width="95" height="24" viewBox="0 0 95 24" fill="none" xmlns="http://www.w3.org/2000/svg">
<g clip-path="url(#clip0_11411_23453)">
<path d="M0.805298 7.2948V16.7052C0.805298 17.304 1.12434 17.8585 1.64471 18.1582L9.79371 22.8609C10.3141 23.1606 10.9522 23.1606 11.4725 22.8609L19.6215 18.1582C20.1419 17.8585 20.4609 17.304 20.4609 16.7052V7.2948C20.4609 6.69595 20.1419 6.14146 19.6215 5.84176L11.4725 1.13912C10.9522 0.83941 10.3141 0.83941 9.79371 1.13912L1.64471 5.84176C1.12946 6.14146 0.805298 6.69595 0.805298 7.2948Z" fill="#213147"/>
<path d="M12.4149 13.8236L11.2513 17.0095C11.2172 17.0976 11.2172 17.196 11.2513 17.2842L13.2492 22.7676L15.5615 21.4323L12.7879 13.8236C12.7243 13.6467 12.4786 13.6467 12.4149 13.8236Z" fill="#12AAFF"/>
<path d="M14.7414 8.46294C14.6777 8.28607 14.4321 8.28607 14.3684 8.46294L13.2048 11.6488C13.1707 11.737 13.1707 11.8354 13.2048 11.9235L16.4788 20.9023L18.7912 19.5669L14.7414 8.46294Z" fill="#12AAFF"/>
<path d="M10.6331 1.48717C10.6923 1.48717 10.7463 1.50195 10.7997 1.53153L19.6164 6.62202C19.7193 6.68117 19.783 6.78865 19.783 6.90694V17.0879C19.783 17.2057 19.7193 17.3137 19.6164 17.3729L10.7997 22.4685C10.7508 22.498 10.6917 22.5128 10.6331 22.5128C10.5745 22.5128 10.5199 22.498 10.4665 22.4685L1.65437 17.378C1.55143 17.3188 1.48774 17.2113 1.48774 17.0931V6.90694C1.48774 6.78922 1.55143 6.68117 1.65437 6.62202L10.471 1.53153C10.5199 1.50195 10.5791 1.48717 10.6331 1.48717ZM10.6331 0C10.3192 0 10.0047 0.0835999 9.72489 0.245681L0.908225 5.33618C0.348617 5.65977 0 6.25919 0 6.90694V17.0879C0 17.7357 0.348617 18.3397 0.908225 18.6638L9.72489 23.7543C10.0047 23.9164 10.3186 24 10.6331 24C10.9476 24 11.2615 23.9164 11.5413 23.7543L20.358 18.6638C20.9227 18.3397 21.2662 17.7408 21.2662 17.0879V6.90694C21.2662 6.25919 20.9176 5.65522 20.358 5.33106L11.5459 0.245681C11.261 0.0835999 10.947 0 10.6325 0H10.6331Z" fill="#9DCCED"/>
<path d="M4.80615 20.9125L5.61599 18.6934L7.2459 20.048L5.72405 21.4425L4.80615 20.9125Z" fill="#213147"/>
<path d="M9.89151 6.18013H7.6582C7.49157 6.18013 7.33916 6.28307 7.28513 6.44003L2.49377 19.5766L4.80614 20.9119L10.0832 6.44515C10.1275 6.31776 10.0343 6.18013 9.89151 6.18013Z" fill="white"/>
<path d="M13.8042 6.18015H11.5709C11.4043 6.18015 11.2519 6.28308 11.1978 6.44004L5.72461 21.442L8.03697 22.7773L13.9908 6.45028C14.0397 6.31777 13.9419 6.18015 13.8042 6.18015Z" fill="white"/>
<path d="M30.784 8.91447C31.0047 8.91447 31.1964 8.95883 31.3488 9.0521C31.5012 9.14537 31.653 9.32224 31.8003 9.58725L34.7161 14.8791C34.7457 14.9382 34.7502 14.9871 34.736 15.0264C34.7212 15.0656 34.6768 15.0855 34.6086 15.0855H33.4894C33.391 15.0855 33.3228 15.0463 33.2881 14.9723L32.6648 13.8383H28.5263L27.9178 14.9723C27.8785 15.0508 27.8097 15.0855 27.7164 15.0855H26.5728C26.4943 15.0855 26.4499 15.0656 26.4351 15.0264C26.4204 14.9871 26.4255 14.9382 26.455 14.8791L29.3464 9.58725C29.4936 9.32224 29.6358 9.14537 29.7786 9.0521C29.9207 8.95883 30.0828 8.91447 30.2694 8.91447H30.7846H30.784ZM29.0705 12.8073H32.104L30.705 10.2253C30.6805 10.1861 30.651 10.1616 30.6066 10.1616H30.5526C30.5133 10.1616 30.4792 10.1816 30.4542 10.2253L29.07 12.8073H29.0705Z" fill="#213147"/>
<path d="M41.1226 8.91446C41.7999 8.91446 42.2811 9.06687 42.5756 9.37113C42.8702 9.67539 43.0175 10.1269 43.0175 10.7258V11.2263C43.0175 11.7318 42.9146 12.1294 42.7081 12.4239C42.5017 12.7185 42.1679 12.9051 41.7015 12.9887L43.2086 14.854C43.2382 14.8836 43.2479 14.9274 43.2331 14.9865C43.2234 15.0457 43.1739 15.0747 43.0909 15.0747H41.9569C41.8784 15.0747 41.8295 15.065 41.7999 15.0502C41.7704 15.0303 41.7408 15.0013 41.7118 14.9621L40.3179 13.1309H37.4709V14.8836C37.4709 15.011 37.4072 15.0753 37.2793 15.0753H36.3267C36.1891 15.0753 36.1254 15.0116 36.1254 14.8836V9.17948C36.1254 9.00261 36.2135 8.91446 36.3904 8.91446H41.1226ZM37.4755 12.0611H40.8479C41.1476 12.0611 41.3586 11.9974 41.4815 11.8695C41.6043 11.7421 41.668 11.5453 41.668 11.2803V10.9123C41.668 10.6473 41.6043 10.4511 41.4815 10.3231C41.3586 10.1958 41.1476 10.1315 40.8479 10.1315H37.5881C37.5096 10.1315 37.4749 10.1656 37.4749 10.2395V12.0605L37.4755 12.0611Z" fill="#213147"/>
<path d="M50.3857 8.91446C50.9897 8.91446 51.4213 9.0373 51.6767 9.27786C51.932 9.51843 52.0594 9.88183 52.0594 10.3675V10.7895C52.0594 11.2803 51.8729 11.6534 51.4947 11.9087C51.8973 12.1441 52.1032 12.5223 52.1032 13.0427V13.5534C52.1032 13.7888 52.0788 13.9998 52.0247 14.1869C51.9707 14.3735 51.8871 14.5356 51.7648 14.6681C51.642 14.8006 51.485 14.9035 51.2837 14.9723C51.0824 15.0411 50.8373 15.0804 50.5427 15.0804H45.3095C45.1326 15.0804 45.0444 14.9922 45.0444 14.8154V9.18005C45.0444 9.00318 45.1326 8.91503 45.3095 8.91503H50.3852L50.3857 8.91446ZM46.3945 11.4771H50.0075C50.3021 11.4771 50.4983 11.4327 50.6064 11.3445C50.7144 11.2564 50.7633 11.1284 50.7633 10.9567V10.657C50.7633 10.4756 50.7144 10.3431 50.6109 10.2543C50.508 10.1707 50.3408 10.1269 50.115 10.1269H46.5117C46.4332 10.1269 46.3985 10.1662 46.3985 10.2401V11.4771H46.3934H46.3945ZM46.3945 12.4393V13.7502C46.3945 13.8287 46.4338 13.8633 46.5077 13.8633H50.1207C50.3562 13.8633 50.5234 13.819 50.6212 13.736C50.719 13.6529 50.7736 13.5153 50.7736 13.3288V12.9949C50.7736 12.8135 50.7196 12.6759 50.6115 12.5826C50.5035 12.4894 50.3021 12.4404 50.0075 12.4404H46.3945V12.4393Z" fill="#213147"/>
<path d="M55.388 8.91446C55.5154 8.91446 55.5797 8.97815 55.5797 9.10611V14.8842C55.5797 15.0116 55.516 15.0758 55.388 15.0758H54.4355C54.2978 15.0758 54.2341 15.0121 54.2341 14.8842V9.11123C54.2341 8.98384 54.3029 8.91958 54.4355 8.91958L55.388 8.91446Z" fill="#213147"/>
<path d="M64.6171 8.91446C64.7547 8.91446 64.8184 8.97815 64.8184 9.10611V9.96998C64.8184 10.1076 64.7496 10.1713 64.6171 10.1713H61.8532V14.8842C61.8532 15.0116 61.7895 15.0758 61.6615 15.0758H60.6992C60.5719 15.0758 60.5076 15.0121 60.5076 14.8842V10.1713H57.7437C57.6061 10.1713 57.5424 10.1025 57.5424 9.96998V9.10611C57.5424 8.97872 57.6112 8.91446 57.7437 8.91446H64.6165H64.6171Z" fill="#213147"/>
<path d="M71.5826 8.91446C72.2599 8.91446 72.741 9.06687 73.0356 9.37113C73.3302 9.67539 73.4775 10.1269 73.4775 10.7258V11.2263C73.4775 11.7318 73.3745 12.1294 73.1681 12.4239C72.9617 12.7185 72.6278 12.9051 72.1615 12.9887L73.6686 14.854C73.6981 14.8836 73.7078 14.9274 73.693 14.9865C73.6834 15.0457 73.6339 15.0747 73.5509 15.0747H72.4168C72.3384 15.0747 72.2895 15.065 72.2599 15.0502C72.2303 15.0303 72.2007 15.0013 72.1717 14.9621L70.7778 13.1309H67.9309V14.8836C67.9309 15.011 67.8672 15.0753 67.7392 15.0753H66.7867C66.649 15.0753 66.5853 15.0116 66.5853 14.8836V9.17948C66.5853 9.00261 66.6735 8.91446 66.8503 8.91446H71.5826ZM67.94 12.0611H71.3124C71.6121 12.0611 71.8231 11.9974 71.946 11.8695C72.0688 11.7421 72.1325 11.5453 72.1325 11.2803V10.9123C72.1325 10.6473 72.0688 10.4511 71.946 10.3231C71.8231 10.1958 71.6121 10.1315 71.3124 10.1315H68.0526C67.9741 10.1315 67.9394 10.1656 67.9394 10.2395V12.0605L67.94 12.0611Z" fill="#213147"/>
<path d="M76.536 8.91446C76.6634 8.91446 76.7276 8.97815 76.7276 9.10611V12.6207C76.7276 12.8562 76.7475 13.0529 76.7868 13.2048C76.826 13.3617 76.8897 13.4846 76.9784 13.5727C77.0666 13.666 77.1849 13.7297 77.3367 13.7644C77.4891 13.8036 77.6756 13.8235 77.906 13.8235H80.3457C80.5766 13.8235 80.7632 13.8036 80.915 13.7644C81.0674 13.7252 81.1851 13.6615 81.2733 13.5727C81.3614 13.4795 81.4257 13.3566 81.4598 13.2048C81.4939 13.0478 81.5138 12.8562 81.5138 12.6207V9.10611C81.5138 8.97872 81.5775 8.91446 81.7055 8.91446H82.6678C82.7951 8.91446 82.8594 8.97815 82.8594 9.10611V12.7532C82.8594 13.1752 82.8151 13.5335 82.7269 13.8332C82.6388 14.1278 82.496 14.3684 82.2998 14.5549C82.1036 14.7414 81.8483 14.8739 81.5338 14.9575C81.2198 15.0411 80.8416 15.0804 80.3946 15.0804H77.8565C77.4101 15.0804 77.0319 15.0411 76.7225 14.9575C76.4131 14.8739 76.1578 14.7414 75.9616 14.5549C75.7654 14.3684 75.6226 14.1278 75.5293 13.8332C75.4361 13.5386 75.3917 13.1752 75.3917 12.7532V9.10611C75.3917 8.97872 75.4605 8.91446 75.593 8.91446H76.5354H76.536Z" fill="#213147"/>
<path d="M86.6436 8.91446C86.771 8.91446 86.8842 8.92413 86.9774 8.93891C87.0707 8.95882 87.1543 8.98782 87.2231 9.04185C87.2919 9.09076 87.3556 9.15957 87.4148 9.24317C87.4688 9.32677 87.5279 9.43938 87.5865 9.58212L89.4178 13.8088C89.4422 13.8628 89.4814 13.8872 89.5406 13.8872H89.6486C89.7078 13.8872 89.747 13.8628 89.7715 13.8088L91.6027 9.58212C91.6619 9.43994 91.7204 9.32677 91.7745 9.24317C91.8285 9.15957 91.8922 9.09076 91.9661 9.04185C92.0349 8.99294 92.1185 8.95825 92.2067 8.93891C92.3 8.91901 92.408 8.91446 92.5354 8.91446H93.4777C93.782 8.91446 93.9884 8.98327 94.0965 9.1209C94.2046 9.25853 94.2535 9.49397 94.2535 9.8278V14.8842C94.2535 15.0116 94.1847 15.0758 94.0521 15.0758H93.1536C93.0262 15.0758 92.9619 15.0121 92.9619 14.8842V10.2845C92.9619 10.2253 92.9375 10.1963 92.8931 10.1963H92.8146C92.7555 10.1963 92.7163 10.2208 92.7015 10.2651L90.9243 14.212C90.8554 14.3689 90.7821 14.5066 90.7081 14.6146C90.6348 14.7227 90.5557 14.8108 90.4727 14.8847C90.3891 14.9536 90.2913 15.0076 90.1832 15.0372C90.0752 15.0667 89.9478 15.0815 89.8005 15.0815H89.3785C89.2312 15.0815 89.1038 15.0667 88.9958 15.0372C88.8877 15.0076 88.7893 14.9587 88.7063 14.8847C88.6227 14.8159 88.5397 14.7227 88.4709 14.6146C88.3975 14.5066 88.3236 14.374 88.2547 14.212L86.4775 10.2651C86.4576 10.2162 86.4235 10.1963 86.3644 10.1963H86.2859C86.237 10.1963 86.2171 10.2259 86.2171 10.2845V14.8842C86.2171 15.0116 86.1534 15.0758 86.0254 15.0758H85.1269C84.9892 15.0758 84.9255 15.0121 84.9255 14.8842V9.8278C84.9255 9.49397 84.9796 9.25853 85.0825 9.1209C85.1905 8.98327 85.3964 8.91446 85.7058 8.91446H86.6436Z" fill="#213147"/>
</g>
<defs>
<clipPath id="clip0_11411_23453">
<rect width="95" height="24" fill="white"/>
</clipPath>
</defs>
</svg>

<svg xmlns="http://www.w3.org/2000/svg" fill="none" viewBox="0 0 95 24">
  <g clip-path="url(#arbitrum-sepolia_svg__a)">
    <path fill="#213147" d="M.805 7.295v9.41c0 .599.32 1.154.84 1.453l8.149 4.703c.52.3 1.158.3 1.678 0l8.15-4.703c.52-.3.839-.854.839-1.453v-9.41c0-.6-.32-1.154-.84-1.453l-8.148-4.703a1.68 1.68 0 0 0-1.68 0L1.646 5.842c-.516.3-.84.854-.84 1.453Z"/>
    <path fill="#12AAFF" d="m12.415 13.824-1.164 3.185a.382.382 0 0 0 0 .275l1.998 5.484 2.313-1.336-2.774-7.608a.197.197 0 0 0-.373 0Zm2.326-5.361a.197.197 0 0 0-.373 0l-1.163 3.186a.382.382 0 0 0 0 .275l3.274 8.978 2.312-1.335-4.05-11.104Z"/>
    <path fill="#9DCCED" d="M10.633 1.487c.06 0 .113.015.167.045l8.816 5.09a.33.33 0 0 1 .167.285v10.18a.329.329 0 0 1-.167.286L10.8 22.468a.337.337 0 0 1-.333 0l-8.813-5.09a.328.328 0 0 1-.166-.285V6.907c0-.118.063-.226.166-.285l8.817-5.09a.32.32 0 0 1 .162-.045Zm0-1.487c-.314 0-.628.084-.908.246L.908 5.336C.348 5.66 0 6.26 0 6.906v10.182c0 .648.349 1.252.908 1.576l8.817 5.09c.28.162.594.246.908.246.315 0 .629-.084.908-.246l8.817-5.09a1.81 1.81 0 0 0 .908-1.576V6.907c0-.648-.348-1.252-.908-1.576L11.546.246A1.847 1.847 0 0 0 10.633 0Z"/>
    <path fill="#213147" d="m4.806 20.913.81-2.22 1.63 1.355-1.522 1.395-.918-.53Z"/>
    <path fill="#fff" d="M9.892 6.18H7.658a.393.393 0 0 0-.373.26L2.494 19.577l2.312 1.335 5.277-14.467a.2.2 0 0 0-.191-.265Zm3.912 0h-2.233a.393.393 0 0 0-.373.26L5.725 21.442l2.312 1.335L13.991 6.45a.2.2 0 0 0-.187-.27Z"/>
    <path fill="#213147" d="M30.784 8.914c.22 0 .412.045.565.138.152.093.304.27.451.535l2.916 5.292c.03.06.034.108.02.147-.015.04-.06.06-.127.06h-1.12c-.098 0-.166-.04-.2-.114l-.624-1.134h-4.139l-.608 1.134c-.04.079-.108.114-.202.114h-1.143c-.079 0-.123-.02-.138-.06-.015-.039-.01-.088.02-.147l2.891-5.292c.148-.265.29-.442.433-.535a.87.87 0 0 1 .49-.138h.516-.001Zm-1.713 3.893h3.033l-1.399-2.582c-.024-.039-.054-.063-.098-.063h-.054c-.04 0-.074.02-.099.063l-1.384 2.582Zm12.052-3.893c.677 0 1.158.153 1.453.457.294.304.441.756.441 1.355v.5c0 .506-.102.903-.309 1.198-.206.295-.54.481-1.006.565l1.507 1.865c.03.03.039.073.024.133-.01.059-.06.088-.142.088h-1.134a.366.366 0 0 1-.157-.025.37.37 0 0 1-.088-.088l-1.394-1.831H37.47v1.753c0 .127-.064.191-.192.191h-.952c-.138 0-.202-.063-.202-.191V9.179c0-.176.089-.265.265-.265h4.733Zm-3.648 3.147h3.373c.3 0 .51-.064.633-.191.123-.128.187-.325.187-.59v-.368c0-.265-.064-.46-.187-.589-.122-.127-.333-.191-.633-.191h-3.26c-.078 0-.113.034-.113.107v1.822Zm12.911-3.147c.604 0 1.035.123 1.29.364.256.24.383.604.383 1.09v.421c0 .491-.186.864-.564 1.12.402.235.608.613.608 1.134v.51c0 .236-.024.447-.078.634a1.178 1.178 0 0 1-.26.481c-.123.133-.28.236-.481.304a2.292 2.292 0 0 1-.741.108H45.31c-.177 0-.266-.088-.266-.265V9.18c0-.177.089-.265.266-.265h5.075Zm-3.992 2.563h3.614c.294 0 .49-.044.598-.133.108-.088.157-.216.157-.387v-.3c0-.181-.049-.314-.152-.403-.103-.083-.27-.127-.496-.127h-3.603c-.079 0-.114.04-.114.113v1.237h-.005.002Zm0 .962v1.311c0 .079.04.113.114.113h3.613c.235 0 .402-.044.5-.127.098-.083.153-.22.153-.407v-.334c0-.181-.054-.32-.163-.412-.107-.094-.309-.143-.603-.143h-3.614Zm8.994-3.525c.127 0 .192.064.192.192v5.778c0 .128-.064.192-.192.192h-.953c-.137 0-.2-.064-.2-.192V9.111c0-.127.068-.191.2-.191l.953-.006Zm9.229 0c.138 0 .201.064.201.192v.864c0 .138-.068.201-.2.201h-2.765v4.713c0 .128-.064.192-.192.192H60.7c-.127 0-.191-.064-.191-.192v-4.713h-2.764c-.138 0-.202-.069-.202-.201v-.864c0-.127.07-.192.202-.192h6.873Zm6.966 0c.677 0 1.158.153 1.453.457.294.304.442.756.442 1.355v.5c0 .506-.103.903-.31 1.198-.206.295-.54.481-1.007.565l1.508 1.865c.03.03.039.073.024.133-.01.059-.06.088-.142.088h-1.134a.366.366 0 0 1-.157-.025.368.368 0 0 1-.088-.088l-1.394-1.831H67.93v1.753c0 .127-.064.191-.192.191h-.952c-.138 0-.202-.063-.202-.191V9.179c0-.176.089-.265.265-.265h4.733Zm-3.643 3.147h3.372c.3 0 .511-.064.634-.191.123-.128.186-.325.186-.59v-.368c0-.265-.063-.46-.186-.589-.123-.127-.334-.191-.634-.191h-3.26c-.078 0-.113.034-.113.107v1.821l.001.001Zm8.596-3.147c.127 0 .192.064.192.192v3.515c0 .235.02.432.059.584.039.157.103.28.191.368a.687.687 0 0 0 .359.191c.152.04.339.06.569.06h2.44c.23 0 .417-.02.569-.06a.755.755 0 0 0 .358-.191.772.772 0 0 0 .187-.368c.034-.157.054-.349.054-.584V9.106c0-.127.064-.192.192-.192h.962c.127 0 .191.064.191.192v3.647c0 .422-.044.78-.132 1.08a1.611 1.611 0 0 1-.427.722 1.732 1.732 0 0 1-.766.402c-.314.084-.692.123-1.14.123h-2.538c-.446 0-.824-.039-1.133-.123a1.74 1.74 0 0 1-.761-.402 1.665 1.665 0 0 1-.433-.722c-.093-.294-.137-.658-.137-1.08V9.106c0-.127.069-.192.201-.192h.943Zm10.108 0c.127 0 .24.01.333.025.094.02.177.049.246.103a.838.838 0 0 1 .192.201c.054.084.113.196.171.34l1.832 4.226c.024.054.063.078.123.078h.108c.059 0 .098-.024.123-.078l1.83-4.227c.06-.142.118-.255.172-.339a.678.678 0 0 1 .433-.304c.093-.02.201-.025.328-.025h.943c.304 0 .51.07.619.207.108.138.157.373.157.707v5.056c0 .128-.07.192-.202.192h-.898c-.128 0-.192-.064-.192-.192v-4.6c0-.059-.025-.088-.069-.088h-.078c-.06 0-.099.025-.114.07l-1.777 3.946a2.514 2.514 0 0 1-.216.403 1.44 1.44 0 0 1-.235.27.781.781 0 0 1-.29.152 1.44 1.44 0 0 1-.383.044h-.421a1.44 1.44 0 0 1-.383-.044.71.71 0 0 1-.29-.152 1.162 1.162 0 0 1-.235-.27 2.351 2.351 0 0 1-.216-.403l-1.777-3.947c-.02-.049-.054-.069-.114-.069h-.078c-.049 0-.069.03-.069.088v4.6c0 .128-.064.192-.192.192h-.898c-.138 0-.201-.064-.201-.192V9.828c0-.334.054-.57.156-.707.109-.138.314-.207.624-.207h.938Z"/>
  </g>
  <defs>
    <clipPath id="arbitrum-sepolia_svg__a">
      <path fill="#fff" d="M0 0h95v24H0z"/>
    </clipPath>
  </defs>
</svg>
